X:1
T:Avant-deux de travers
E:12
Z:Roger Ngaret (94-95)
R:avantdeux
C:Trad.
S:
A:Bretagne
M:2/4
L:1/16
K:C
Q:1/4=140
G2 |: "C"c2d2 e2c2 | "G"B2A2 "C"G2G2 | c2d2 e2ce |1 "G"d2Bd "C"g2G2 :|2
"G"d2B2 "C"c4 |: c2e2 g2g2 | "G"a2a2 "C"g2eg | 
"G"f2df "C"e2ce |1 "G"d2Bd "C"e2c2 :|2
"G"d2B2 "C"c4 |: c2c2 c2e2 | "G"d2d2 d2f2 | 
"C"e2e2 e2g2 |1 "G"f2f2 f2dB :|2
f2f2 f4 |: "C"g2g2 e2ce | "G"d2Bd "C"e2c2 | 
g2g2 e2ce |1 "G"d2d2 d4 :|2 d2B2 "C"c4 |]
